X: 30987
T: P. J. Moloney's
R: hornpipe
M: 4/4
K: Gmajor
DEF|:G2DG BDGB|dggd bgdB|c2ec Bdgf|edcB ADFA|
G2DG BDGB|dggd bgdB|c2ec Bd (3gfe|1 (3ded (3cBA GDEF:|2 (3ded (3cBA GABd||
g2bg dgbg|g2bg dBGB|c2ec Bdgf|edcB ADFA|
(3Bcd (3Bcd cABc|dgga bgdB|cdec Bd (3gfe|1 (3ded (3cBA GABd:|2 (3ded (3cBA G||

